src/assets/images/icons/svg/handshake.svg

<svg width="64" height="64" viewBox="0 0 64 64" fill="none" xmlns="http://www.w3.org/2000/svg">
<path d="M31.6396 54.6667C31.8583 54.6667 32.1121 54.6138 32.401 54.508C32.6899 54.4022 32.9285 54.2551 33.117 54.0667L55.5196 31.5973C56.1183 30.9982 56.573 30.3118 56.8836 29.538C57.1939 28.7647 57.349 27.9695 57.349 27.1527C57.349 26.3433 57.1939 25.5378 56.8836 24.736C56.573 23.9342 56.1183 23.2289 55.5196 22.62L43.9663 11.0667C43.3779 10.4889 42.6976 10.0555 41.9256 9.76666C41.1541 9.47777 40.3816 9.33333 39.6083 9.33333C38.8359 9.33333 38.0759 9.4751 37.3283 9.75866C36.5807 10.0422 35.9234 10.4622 35.3563 11.0187L34.2676 12.1233L39.5723 17.478C40.1816 18.1429 40.7219 18.9104 41.193 19.7807C41.6641 20.6504 41.8996 21.6064 41.8996 22.6487C41.8996 24.422 41.2065 25.9902 39.8203 27.3533C38.4336 28.7169 36.8472 29.3987 35.061 29.3987C33.8899 29.3987 32.9163 29.2213 32.1403 28.8667C31.3643 28.512 30.6441 28.0024 29.9796 27.338L25.1443 22.5027L13.365 34.2827C13.1427 34.4964 12.9872 34.7269 12.8983 34.974C12.8094 35.2211 12.765 35.4795 12.765 35.7493C12.765 36.3271 12.9525 36.8022 13.3276 37.1747C13.7027 37.5471 14.1774 37.7333 14.7516 37.7333C15.0165 37.7333 15.2732 37.6667 15.5216 37.5333C15.7705 37.4 15.985 37.2444 16.165 37.0667L23.801 29.432C24.2041 29.028 24.6723 28.826 25.2056 28.826C25.739 28.826 26.2056 29.0287 26.6056 29.434C27.0056 29.8393 27.2056 30.3067 27.2056 30.836C27.2056 31.3653 27.0056 31.8287 26.6056 32.226L19.033 39.798C18.8099 40.0215 18.6539 40.2702 18.565 40.544C18.4761 40.8182 18.4316 41.0867 18.4316 41.3493C18.4316 41.8867 18.6263 42.3518 19.0156 42.7447C19.405 43.1371 19.8663 43.3333 20.3996 43.3333C20.6663 43.3333 20.9252 43.2773 21.1763 43.1653C21.4274 43.0538 21.6474 42.9087 21.8363 42.73L29.435 35.1147C29.8385 34.7107 30.307 34.5113 30.8403 34.5167C31.3736 34.522 31.8403 34.7193 32.2403 35.1087C32.6403 35.5087 32.8403 35.9753 32.8403 36.5087C32.8403 37.042 32.6403 37.5087 32.2403 37.9087L24.6523 45.4813C24.4839 45.66 24.3414 45.8938 24.225 46.1827C24.1085 46.4715 24.0503 46.7493 24.0503 47.016C24.0503 47.5493 24.2503 48.016 24.6503 48.416C25.0503 48.816 25.517 49.016 26.0503 49.016C26.317 49.016 26.5632 48.9689 26.789 48.8747C27.0152 48.7804 27.2356 48.6275 27.4503 48.416L35.091 40.7593C35.4883 40.3593 35.9543 40.162 36.489 40.1673C37.0236 40.1727 37.491 40.37 37.891 40.7593C38.291 41.17 38.491 41.64 38.491 42.1693C38.491 42.6987 38.291 43.162 37.891 43.5593L30.2503 51.2C30.0387 51.4222 29.8859 51.6702 29.7916 51.944C29.6974 52.2182 29.6503 52.4644 29.6503 52.6827C29.6503 53.3089 29.8281 53.7962 30.1836 54.1447C30.5392 54.4927 31.0245 54.6667 31.6396 54.6667ZM31.6503 59.0333C30.1307 59.0333 28.7692 58.4862 27.5656 57.392C26.3621 56.2978 25.6281 54.9347 25.3636 53.3027C23.8734 53.0698 22.6147 52.4371 21.5876 51.4047C20.5601 50.3718 19.9299 49.1155 19.697 47.636C18.2281 47.3929 16.991 46.7515 15.9856 45.712C14.9803 44.6729 14.3561 43.436 14.113 42.0013C12.4579 41.7369 11.089 41.0196 10.0063 39.8493C8.92363 38.6796 8.3823 37.2904 8.3823 35.682C8.3823 34.8842 8.53652 34.0867 8.84496 33.2893C9.15296 32.492 9.6083 31.7878 10.211 31.1767L21.9616 19.426C22.831 18.5642 23.8936 18.1333 25.1496 18.1333C26.4061 18.1333 27.4705 18.5642 28.343 19.426L32.717 23.8C33.0725 24.1555 33.4632 24.436 33.889 24.6413C34.3147 24.8467 34.7347 24.9493 35.149 24.9493C35.7174 24.9493 36.2543 24.6949 36.7596 24.186C37.2645 23.6775 37.517 23.1364 37.517 22.5627C37.517 22.2978 37.4339 21.9933 37.2676 21.6493C37.1014 21.3053 36.8456 20.9553 36.5003 20.5993L26.935 11.0333C26.3683 10.4671 25.6936 10.0422 24.911 9.75866C24.1287 9.4751 23.3403 9.33333 22.5456 9.33333C21.7399 9.33333 20.9663 9.4751 20.225 9.75866C19.4836 10.0422 18.8356 10.4662 18.281 11.0307L8.3043 20.9767C7.4683 21.8233 6.95563 22.856 6.7663 24.0747C6.57696 25.2933 6.71607 26.454 7.18363 27.5567C7.37385 28.0984 7.33941 28.6355 7.0803 29.168C6.82074 29.7004 6.41719 30.0724 5.86963 30.284C5.32252 30.4956 4.76896 30.4638 4.20896 30.1887C3.64896 29.9131 3.26585 29.4991 3.05963 28.9467C2.35207 26.9782 2.15919 25.0211 2.48096 23.0753C2.80274 21.1295 3.72541 19.3938 5.24896 17.868L15.1403 7.96399C16.1394 6.96488 17.299 6.22666 18.619 5.74932C19.939 5.27199 21.2701 5.03333 22.6123 5.03333C23.9861 5.03333 25.3141 5.27199 26.5963 5.74932C27.8781 6.22666 29.0159 6.95421 30.0096 7.93199L31.1143 9.01999L32.2023 7.93199C33.1907 6.96488 34.3436 6.23999 35.661 5.75732C36.9783 5.27466 38.315 5.03333 39.671 5.03333C41.0234 5.03333 42.3452 5.27999 43.6363 5.77332C44.9279 6.26666 46.0732 7.01266 47.0723 8.01132L58.671 19.594C59.6807 20.5998 60.4379 21.7711 60.9423 23.108C61.4472 24.4449 61.6996 25.7931 61.6996 27.1527C61.6996 28.5127 61.4392 29.856 60.9183 31.1827C60.3979 32.5093 59.6327 33.6827 58.623 34.7027L36.1723 57.138C35.5625 57.7473 34.8696 58.2155 34.0936 58.5427C33.3181 58.8698 32.5036 59.0333 31.6503 59.0333Z" fill="black"/>
</svg>

<svg xmlns="http://www.w3.org/2000/svg" width="64" height="64" fill="none"><path fill="#000" d="M31.64 54.667c.218 0 .472-.053.761-.159.289-.106.527-.253.716-.441l22.403-22.47a6.104 6.104 0 0 0 1.364-2.059 6.35 6.35 0 0 0 .465-2.385 6.65 6.65 0 0 0-.465-2.417 6.16 6.16 0 0 0-1.364-2.116L43.966 11.067a5.764 5.764 0 0 0-2.04-1.3 6.568 6.568 0 0 0-2.318-.434c-.772 0-1.532.142-2.28.426a5.64 5.64 0 0 0-1.972 1.26l-1.088 1.104 5.304 5.355c.61.665 1.15 1.432 1.621 2.303.471.87.707 1.825.707 2.868 0 1.773-.694 3.341-2.08 4.704-1.386 1.364-2.973 2.046-4.759 2.046-1.171 0-2.145-.178-2.92-.532a7.416 7.416 0 0 1-2.161-1.529l-4.836-4.835-11.779 11.78a1.815 1.815 0 0 0-.467.691 2.273 2.273 0 0 0-.133.775c0 .578.188 1.053.563 1.426.375.372.85.558 1.424.558.264 0 .521-.066.77-.2.248-.133.463-.289.643-.466l7.636-7.635c.403-.404.871-.606 1.405-.606.533 0 1 .203 1.4.608.4.405.6.873.6 1.402 0 .53-.2.993-.6 1.39l-7.573 7.572c-.223.224-.38.472-.468.746a2.603 2.603 0 0 0-.133.805c0 .538.194 1.003.584 1.396.389.392.85.588 1.384.588.266 0 .525-.056.776-.168.251-.111.471-.256.66-.435l7.599-7.615c.404-.404.872-.604 1.405-.598.534.005 1 .202 1.4.592.4.4.6.866.6 1.4 0 .533-.2 1-.6 1.4l-7.588 7.572a2.22 2.22 0 0 0-.427.702 2.224 2.224 0 0 0-.175.833c0 .533.2 1 .6 1.4.4.4.867.6 1.4.6a1.9 1.9 0 0 0 .739-.141c.226-.095.447-.248.661-.459l7.641-7.657c.397-.4.863-.597 1.398-.592a1.977 1.977 0 0 1 1.402.592c.4.411.6.881.6 1.41 0 .53-.2.993-.6 1.39l-7.64 7.641a2.03 2.03 0 0 0-.46.744c-.094.274-.14.52-.14.739 0 .626.177 1.113.533 1.462.355.348.84.522 1.456.522Zm.01 4.366c-1.52 0-2.88-.547-4.084-1.641-1.204-1.094-1.938-2.457-2.202-4.09-1.49-.232-2.75-.865-3.776-1.897-1.028-1.033-1.658-2.29-1.891-3.769-1.469-.243-2.706-.885-3.711-1.924a6.867 6.867 0 0 1-1.873-3.71c-1.655-.265-3.024-.982-4.107-2.153-1.082-1.17-1.624-2.559-1.624-4.167 0-.798.155-1.595.463-2.393a6.118 6.118 0 0 1 1.366-2.112l11.75-11.751c.87-.862 1.933-1.293 3.189-1.293s2.32.431 3.193 1.293l4.374 4.374c.355.355.746.636 1.172.841.426.206.846.308 1.26.308.568 0 1.105-.254 1.61-.763.505-.509.758-1.05.758-1.623 0-.265-.083-.57-.25-.914-.166-.344-.421-.694-.767-1.05l-9.565-9.566a5.45 5.45 0 0 0-2.024-1.274 6.897 6.897 0 0 0-2.365-.426 6.44 6.44 0 0 0-2.321.426 5.396 5.396 0 0 0-1.944 1.272l-9.977 9.946c-.836.846-1.348 1.879-1.538 3.098a6.28 6.28 0 0 0 .418 3.482 2.02 2.02 0 0 1-.104 1.611c-.26.532-.663.904-1.21 1.116-.547.212-1.101.18-1.661-.095-.56-.276-.943-.69-1.15-1.242-.707-1.969-.9-3.926-.578-5.872.322-1.945 1.244-3.681 2.768-5.207l9.891-9.904c1-1 2.159-1.737 3.479-2.215a11.668 11.668 0 0 1 3.993-.716c1.374 0 2.702.239 3.984.716a9.594 9.594 0 0 1 3.414 2.183l1.104 1.088 1.088-1.088a9.617 9.617 0 0 1 3.459-2.175 11.576 11.576 0 0 1 4.01-.724c1.352 0 2.674.247 3.965.74a9.722 9.722 0 0 1 3.436 2.238l11.599 11.583a9.773 9.773 0 0 1 2.271 3.514 11.37 11.37 0 0 1 .758 4.045c0 1.36-.26 2.703-.782 4.03a10.304 10.304 0 0 1-2.295 3.52l-22.45 22.435a6.481 6.481 0 0 1-2.08 1.405c-.775.327-1.59.49-2.443.49Z"/></svg>
